polaris-icons/icons/newicons/FolderMajor.svg

<svg width="20" height="20" viewBox="0 0 20 20" fill="none" xmlns="http://www.w3.org/2000/svg">
<path fill-rule="evenodd" clip-rule="evenodd" d="M4.75 5.5C4.05964 5.5 3.5 6.05964 3.5 6.75V13.25C3.5 13.9404 4.05964 14.5 4.75 14.5H15.25C15.9404 14.5 16.5 13.9404 16.5 13.25V8.75C16.5 8.05964 15.9404 7.5 15.25 7.5H10.368C9.70518 7.5 9.09922 7.1255 8.80279 6.53262L8.63197 6.19098C8.42023 5.7675 7.9874 5.5 7.51393 5.5H4.75ZM2 6.75C2 5.23122 3.23122 4 4.75 4H7.51393C8.55556 4 9.50778 4.58851 9.97361 5.52016L10.1444 5.8618C10.1868 5.9465 10.2733 6 10.368 6H15.25C16.7688 6 18 7.23122 18 8.75V13.25C18 14.7688 16.7688 16 15.25 16H4.75C3.23122 16 2 14.7688 2 13.25V6.75Z" fill="black"/>
</svg>

<svg viewBox="0 0 20 20" fill="none" xmlns="http://www.w3.org/2000/svg"><path fill-rule="evenodd" clip-rule="evenodd" d="M4.75 5.5c-.69 0-1.25.56-1.25 1.25v6.5c0 .69.56 1.25 1.25 1.25h10.5c.69 0 1.25-.56 1.25-1.25v-4.5c0-.69-.56-1.25-1.25-1.25h-4.882a1.75 1.75 0 0 1-1.565-.967l-.171-.342a1.25 1.25 0 0 0-1.118-.691h-2.764Zm-2.75 1.25a2.75 2.75 0 0 1 2.75-2.75h2.764a2.75 2.75 0 0 1 2.46 1.52l.17.342a.25.25 0 0 0 .224.138h4.882a2.75 2.75 0 0 1 2.75 2.75v4.5a2.75 2.75 0 0 1-2.75 2.75h-10.5a2.75 2.75 0 0 1-2.75-2.75v-6.5Z" fill="#000"/></svg>
